dist/svg/static/facebook-small.svg

<svg xmlns="http://www.w3.org/2000/svg" width="24" height="24" viewBox="0 0 24 24"><path d="M10.105 10.158H7.593v2.21h2.512V19h2.948v-6.632H16v-2.21h-2.947v-.89c0-.668.702-2.058 1.726-2.058H16V5h-2.579c-3.638.53-3.316 5.158-3.316 5.158z" fill="currentColor"/></svg>

<?xml version="1.0" encoding="UTF-8" standalone="no"?>
<svg width="24px" height="24px" viewBox="0 0 24 24" version="1.1" xmlns="http://www.w3.org/2000/svg" xmlns:xlink="http://www.w3.org/1999/xlink">
    <!-- Generator: sketchtool 46.2 (44496) - http://www.bohemiancoding.com/sketch -->
    <title>facebook-small</title>
    <desc>Created with sketchtool.</desc>
    <defs></defs>
    <g id="icons-published" stroke="none" stroke-width="1" fill="none" fill-rule="evenodd">
        <g id="briefing" transform="translate(-2660.000000, -538.000000)"></g>
        <g id="facebook-small" fill-rule="nonzero" fill="#000000">
            <path d="M10.1,10.2 L7.6,10.2 L7.6,12.4 L10.1,12.4 L10.1,19 L13,19 L13,12.4 L16,12.4 L16,10.2 L13.1,10.2 L13.1,9.3 C13.1,8.6 13.8,7.2 14.8,7.2 L16,7.2 L16,5 L13.4,5 C9.8,5.5 10.1,10.2 10.1,10.2 Z" id="Shape"></path>
        </g>
    </g>
</svg>
